src/assets/skills/tailwind-icon.svg

<svg width="123" height="73" viewBox="0 0 123 73" fill="none" xmlns="http://www.w3.org/2000/svg">
<g clip-path="url(#clip0_57_15)">
<path fill-rule="evenodd" clip-rule="evenodd" d="M61.5 0C45.104 0 34.854 8.11111 30.75 24.3333C36.9027 16.2255 44.0763 13.1843 52.271 15.2096C56.9556 16.365 60.2788 19.7217 64.0024 23.4369C70.0083 29.4928 77.0151 36.495 92.25 36.495C108.646 36.495 118.896 28.3839 123 12.1617C116.854 20.2761 109.68 23.3174 101.479 21.2854C96.7944 20.13 93.4712 16.7734 89.7476 13.0581C83.7217 6.9723 76.7449 0 61.5 0ZM30.75 36.495C14.354 36.495 4.104 44.6061 0 60.8284C6.15934 52.7206 13.333 49.6793 21.521 51.7046C26.2056 52.86 29.5288 56.2167 33.2524 59.9419C39.2583 65.9879 46.2651 73 61.5 73C77.896 73 88.146 64.8889 92.25 48.6667C86.104 56.7745 78.9303 59.8091 70.729 57.7705C66.0444 56.6151 62.7212 53.2584 58.9976 49.5432C52.9917 43.4872 45.9849 36.4751 30.75 36.4751V36.495Z" fill="#06B6D4"/>
</g>
<defs>
<clipPath id="clip0_57_15">
<rect width="123" height="73" fill="white"/>
</clipPath>
</defs>
</svg>

<svg xmlns="http://www.w3.org/2000/svg" width="123" height="73" fill="none"><g clip-path="url(#a)"><path fill="#06B6D4" fill-rule="evenodd" d="M61.5 0C45.104 0 34.854 8.111 30.75 24.333c6.153-8.107 13.326-11.149 21.521-9.123 4.685 1.155 8.008 4.512 11.731 8.227 6.006 6.056 13.013 13.058 28.248 13.058 16.396 0 26.646-8.111 30.75-24.333-6.146 8.114-13.32 11.155-21.521 9.123-4.685-1.155-8.008-4.512-11.731-8.227C83.722 6.972 76.745 0 61.5 0ZM30.75 36.495c-16.396 0-26.646 8.111-30.75 24.333 6.16-8.107 13.333-11.149 21.521-9.123 4.685 1.155 8.008 4.512 11.731 8.237C39.258 65.988 46.265 73 61.5 73c16.396 0 26.646-8.111 30.75-24.333-6.146 8.108-13.32 11.142-21.521 9.103-4.685-1.155-8.008-4.512-11.731-8.227-6.006-6.056-13.013-13.068-28.248-13.068v.02Z" clip-rule="evenodd"/></g><defs><clipPath id="a"><path fill="#fff" d="M0 0h123v73H0z"/></clipPath></defs></svg>
